storage/app/icons/phosphoricons/regular/book-open.svg

<svg xmlns="http://www.w3.org/2000/svg" fill="currentColor" viewBox="0 0 256 256"><path d="M232 48h-72a40 40 0 0 0-32 16 40 40 0 0 0-32-16H24a8 8 0 0 0-8 8v144a8 8 0 0 0 8 8h72a24 24 0 0 1 24 24 8 8 0 0 0 16 0 24 24 0 0 1 24-24h72a8 8 0 0 0 8-8V56a8 8 0 0 0-8-8M96 192H32V64h64a24 24 0 0 1 24 24v112a39.8 39.8 0 0 0-24-8m128 0h-64a39.8 39.8 0 0 0-24 8V88a24 24 0 0 1 24-24h64Z"/></svg>

<svg xmlns="http://www.w3.org/2000/svg" viewBox="0 0 256 256" fill="currentColor"><path d="M232,48H160a40,40,0,0,0-32,16A40,40,0,0,0,96,48H24a8,8,0,0,0-8,8V200a8,8,0,0,0,8,8H96a24,24,0,0,1,24,24,8,8,0,0,0,16,0,24,24,0,0,1,24-24h72a8,8,0,0,0,8-8V56A8,8,0,0,0,232,48ZM96,192H32V64H96a24,24,0,0,1,24,24V200A39.81,39.81,0,0,0,96,192Zm128,0H160a39.81,39.81,0,0,0-24,8V88a24,24,0,0,1,24-24h64Z"/></svg>
